build/documents/FileWordOutline.svg

<svg xmlns="http://www.w3.org/2000/svg" fill="none" viewBox="0 0 24 24" focusable="false"><path d="M0 0H24V24H0z"/><path fill="#74767B" fill-rule="evenodd" d="M20.65 6.3501C20.65 4.69324 19.3069 3.3501 17.65 3.3501L9.65 3.3501C7.99314 3.3501 6.65 4.69324 6.65 6.3501L6.65 16.3501C6.65 18.007 7.99314 19.3501 9.65 19.3501L17.65 19.3501C19.3069 19.3501 20.65 18.007 20.65 16.3501L20.65 6.3501ZM17.65 4.6501L9.65 4.6501C8.71112 4.6501 7.95 5.41121 7.95 6.3501L7.95 16.3501C7.95 17.289 8.71112 18.0501 9.65 18.0501L17.65 18.0501C18.5889 18.0501 19.35 17.289 19.35 16.3501L19.35 6.3501C19.35 5.41121 18.5889 4.6501 17.65 4.6501ZM16.7103 8.5044C17.0535 8.60953 17.2466 8.97302 17.1414 9.31626L15.7774 13.7694C15.6947 14.0394 15.4471 14.2252 15.1648 14.229C14.8824 14.2328 14.6298 14.0539 14.5398 13.7862L13.6403 11.1111L12.6817 13.7975C12.5868 14.0634 12.331 14.2377 12.0488 14.2287C11.7666 14.2197 11.5224 14.0296 11.4446 13.7581L10.1684 9.30497C10.0695 8.95987 10.2691 8.59995 10.6142 8.50105C10.9593 8.40215 11.3192 8.60173 11.4181 8.94683L12.1371 11.4555L13.0463 8.90745C13.1394 8.6466 13.3875 8.47338 13.6644 8.47592C13.9414 8.47846 14.1863 8.65621 14.2746 8.91872L15.1271 11.4539L15.8984 8.93553C16.0036 8.59229 16.3671 8.39926 16.7103 8.5044ZM4 9.3501C4 8.99111 4.29101 8.7001 4.65 8.7001C5.00898 8.7001 5.3 8.99111 5.3 9.3501L5.3 18.7501C5.3 19.8271 6.17304 20.7001 7.25 20.7001L15.65 20.7001C16.009 20.7001 16.3 20.9911 16.3 21.3501C16.3 21.7091 16.009 22.0001 15.65 22.0001L7.25 22.0001C5.45507 22.0001 4 20.545 4 18.7501L4 9.3501Z"/></svg>

<svg xmlns="http://www.w3.org/2000/svg" fill="none" viewBox="0 0 24 24" focusable="false"><path fill="#74767B" fill-rule="evenodd" d="M20.64 6.35c0-1.66-1.34-3-3-3h-8c-1.65 0-3 1.34-3 3v10c0 1.65 1.35 3 3 3h8c1.66 0 3-1.35 3-3zm-3-1.7h-8c-.93 0-1.7.76-1.7 1.7v10c0 .93.77 1.7 1.7 1.7h8c.94 0 1.71-.77 1.71-1.7v-10c0-.94-.77-1.7-1.71-1.7m-.5 4.66a.653.653 0 0 0-1.25-.38l-.77 2.52-.85-2.54a.65.65 0 0 0-.61-.44.65.65 0 0 0-.62.43l-.91 2.55-.72-2.51a.65.65 0 0 0-.8-.44c-.35.09-.55.45-.45.8l1.28 4.45a.652.652 0 0 0 1.24.04l.96-2.68.89 2.67c.09.27.35.45.63.44.28 0 .53-.19.61-.46zM4 9.35c0-.36.29-.65.64-.65.36 0 .66.29.66.65v9.4c0 1.07.87 1.95 1.95 1.95h8.39c.36 0 .65.29.65.65 0 .35-.29.65-.65.65H7.25A3.25 3.25 0 0 1 4 18.75z"/></svg>
